!!!OTL: Koenig von Mailand Et geng e Keneng ganz siwe Gor,
!!!ARE: Europa, Suedosteuropa, Rumaenien, Siebenbuergen
!!!YOR: 3, S. 234
!!    1931 gedruckt in Herrmannstadt
!!!SCT: Q0041b
!!!YEM: Copyright 1995, estate of Helmut Schaffrath.
**kern
*ICvox
*Ivox
*M4/4
*k[b-]
*F:
{4c
=1
4g
4g
8a
8a
8g
8a
=2
4b-
4b-
4a}
{4f
=3
4f
4f
8e
8e
4d
=4
8g
8g
8g
8e
4c}
{4c
=5
2f
2g
=6
2cc
4a
8g
8a
=7
8b-
8b-
8a
8a
4g}
==
!!!AGN: Ballade, Verfuehrung, Mord, Rache
!! Melodievergleich zu Q0067, anderes Lied "Maedchenmoerder" , deshalb
!!    in die Balladengruppe Q0041 eingeordnet.
!!!ONB: ESAC (Essen Associative Code) Database: BALLADE
!!!AMT: simple quadruple
!!!AIN: vox
!!!EED: Helmut Schaffrath
!!!EEV: 1.0
*-
